X:965
T: Pleasant Hour (The) (with piano acc.)
C: BB
L: 1/8
M: 4/4
R: reel
Q: 1/4=175
V: 1 program 1 110 %fiddle
V: 2 bass volume=70 m=D program 1 01
K: Dm
[V:1] "Dm"A2 FA dAFA|"C"GE ~E2 CEGE|"Dm"A2 FA dAFA|"Bb"defd "Am7"cAEG|
[V:2] D,2[A2D2F2]A,,2[A2D2F2]|C,2[E2G2C2]G,,2[E2C2G2]|D,2[A2D2F2]A,,2[A2D2F2]|\B,,2[B2F2D2]A,,2[E2G2C2]|
%
[V:1] "Dm"A2 FA dAFA|"C"GE ~E2 GABc|"Dm"defd "Gm7"BAGF|"C"EGEC "Dm"D4:|
[V:2] D,2[A2D2F2]A,,2[A2D2F2]|C,2[E2G2C2]G,,2[E2C2G2]|D,2[A2D2F2]G,,2[F2D2B2]|\
C,2[E2G2C2][D,4A,4F4]:|
%
[V:1] "F"F2 AF CFAF|"Gm"G2 Bc dcBG|"Am"A2 cA eAcA|"Bb"d2 fd "C"ecGE|
[V:2] F,,2[A2C2F2]C,2[A2C2F2]|G,,2[G2D2B2]D,,2[G2D2B2]|A,,2[A2C2E2]E,,2[E2C2A2]|B,,2[B2F2D2]C,2[E2G2C2]|
%
[V:1] "F"F2 AF CFAF|"Gm"G2 Bc dcde|"Dm"fafd "C"egec|"Am7"AGEC "Dm"D4 :|
[V:2]F,,2[A2C2F2]C,2[A2C2F2]|G,,2[G2D2B2]D,,2[G2D2B2]|D,2[A2D2F2]C,2[E2G2C2]|\
A,,2[G2C2E2][D,4A,4F4]:|

%%%%%%%%%%%%%%%%%

